Numix-GalliumOS/24/actions/package-installed-outdated.svg

<?xml version="1.0" encoding="UTF-8" standalone="no"?>
<svg
   xmlns:dc="http://purl.org/dc/elements/1.1/"
   xmlns:cc="http://creativecommons.org/ns#"
   xmlns:rdf="http://www.w3.org/1999/02/22-rdf-syntax-ns#"
   xmlns:svg="http://www.w3.org/2000/svg"
   xmlns="http://www.w3.org/2000/svg"
   xmlns:sodipodi="http://sodipodi.sourceforge.net/DTD/sodipodi-0.dtd"
   xmlns:inkscape="http://www.inkscape.org/namespaces/inkscape"
   width="24"
   viewBox="0 0 24 24"
   height="24"
   id="svg2"
   version="1.1"
   inkscape:version="0.91 r"
   sodipodi:docname="package-installed-updated.svg">
  <metadata
     id="metadata20">
    <rdf:RDF>
      <cc:Work
         rdf:about="">
        <dc:format>image/svg+xml</dc:format>
        <dc:type
           rdf:resource="http://purl.org/dc/dcmitype/StillImage" />
        <dc:title />
      </cc:Work>
    </rdf:RDF>
  </metadata>
  <defs
     id="defs18" />
  <sodipodi:namedview
     pagecolor="#ffffff"
     bordercolor="#666666"
     borderopacity="1"
     objecttolerance="10"
     gridtolerance="10"
     guidetolerance="10"
     inkscape:pageopacity="0"
     inkscape:pageshadow="2"
     inkscape:window-width="1366"
     inkscape:window-height="747"
     id="namedview16"
     showgrid="false"
     inkscape:zoom="9.8333333"
     inkscape:cx="12"
     inkscape:cy="10.701915"
     inkscape:window-x="0"
     inkscape:window-y="21"
     inkscape:window-maximized="1"
     inkscape:current-layer="svg2" />
  <g
     transform="matrix(.55556 0 0 .55556 -1.33333 12)"
     id="g4">
    <path
       style="fill:#c19553"
       d="M 8.0571429,-18 C 7.0285714,-18 6,-16.971429 6,-15.942857 L 6,16 c 0,0.971429 1.0285714,2 2,2 l 32,0 c 0.971429,0 2,-1.028571 2,-2 l 0,-32 c 0,-0.971429 -1.028571,-2 -2,-2 z"
       id="path6" />
  </g>
  <g
     style="fill:#fff"
     transform="matrix(.55556 0 0 .55556 -1.33333 -1.33333)"
     id="g8">
    <path
       style="fill-opacity:.196"
       d="M 8.0571429,6 C 7.0285714,6 6,7.0285714 6,8.0571429 L 6.0000001,18.6 C 10,18.6 38,18.6 42,18.6 L 42,8 C 42,7.0285714 40.971429,6 40,6 z"
       id="path10" />
    <path
       style="fill-opacity:.392"
       d="M 20.4,9.6000001 20.4,25.8 l 7.2,0 0,-16.1999999 z"
       id="path12" />
  </g>
  <g
     id="g4140"
     transform="matrix(0.68181818,0,0,0.68181818,9,10.363636)">
    <path
       id="path4142"
       d="M 7.7,12.3 18.7,2.4 22,6.8 7.7,20 1.1e-8,12.3 3.3,7.9 Z"
       style="fill:#888888"
       inkscape:connector-curvature="0" />
  </g>
</svg>

<svg xmlns="http://www.w3.org/2000/svg" viewBox="0 0 24 24">
 <g transform="matrix(.55556 0 0 .55556 -1.33333 12)">
  <path d="m 8.06 -18 c -1.029 0 -2.057 1.029 -2.057 2.057 l 0 31.943 c 0 0.971 1.029 2 2 2 l 32 0 c 0.971 0 2 -1.029 2 -2 l 0 -32 c 0 -0.971 -1.029 -2 -2 -2 z" style="fill:#c19553"/>
 </g>
 <g transform="matrix(.55556 0 0 .55556 -1.33333 -1.33333)" style="fill:#fff">
  <path d="m 8.06 6 c -1.029 0 -2.057 1.029 -2.057 2.057 l 0 10.543 c 4 0 32 0 36 0 l 0 -10.6 c 0 -0.971 -1.029 -2 -2 -2 z" style="fill-opacity:0.196"/>
  <path d="m 20.4 9.6 0 16.2 l 7.2 0 0 -16.2 z" style="fill-opacity:0.392"/>
 </g>
 <g transform="matrix(0.68181818,0,0,0.68181818,9,10.363636)">
  <path d="M 7.7,12.3 18.7,2.4 22,6.8 7.7,20 1.1e-8,12.3 3.3,7.9 Z" style="fill:#888"/>
 </g>
</svg>
